CommonLib.Web/CommonLib.Web/wwwroot/icons/light/pills.svg

<svg xmlns="http://www.w3.org/2000/svg" viewBox="0 0 576 512"><!--! Font Awesome Pro 6.2.0 by @fontawesome - https://fontawesome.com License - https://fontawesome.com/license (Commercial License) Copyright 2022 Fonticons, Inc. --><path d="M112 32C50.25 32 0 82.25 0 143.1v223.1c0 61.75 50.25 111.1 112 111.1s112-50.25 112-111.1V143.1C224 82.25 173.8 32 112 32zM192 368C192 412.1 156.1 448 112 448S32 412.1 32 368V288h160V368zM192 256H32V144C32 99.88 67.88 64 112 64S192 99.88 192 144V256zM416 160c-88.38 0-160 71.62-160 160s71.63 160 160 160s160-71.63 160-160S504.4 160 416 160zM416 448c-70.75 0-128-57.25-128-128c0-29.62 10.38-56.38 27.25-78.12l178.1 178.9C472.4 437.6 445.6 448 416 448zM516.8 398.1L337.9 219.2C359.6 202.5 386.4 192 416 192c70.75 0 128 57.25 128 128C544 349.6 533.6 376.4 516.8 398.1z"/></svg>

<svg xmlns="http://www.w3.org/2000/svg" viewBox="0 0 576 512"><path d="M112 32C50.2 32 0 82.2 0 144v224c0 61.8 50.2 112 112 112s112-50.2 112-112V144c0-61.8-50.2-112-112-112zm80 336c0 44.1-35.9 80-80 80s-80-35.9-80-80v-80h160v80zm0-112H32V144c0-44.1 35.9-80 80-80s80 35.9 80 80v112zm224-96c-88.4 0-160 71.6-160 160s71.6 160 160 160 160-71.6 160-160-71.6-160-160-160zm0 288c-70.7 0-128-57.3-128-128 0-29.6 10.4-56.4 27.3-78.1l178.9 178.9C472.4 437.6 445.6 448 416 448zm100.7-49.9L337.9 219.3c21.7-16.8 48.5-27.3 78.1-27.3 70.7 0 128 57.3 128 128 0 29.6-10.4 56.4-27.3 78.1z"/></svg>
